web/workspace/public/assets/icons/white/film.svg

<svg xmlns="http://www.w3.org/2000/svg" width="30" height="30" viewBox="0 0 30 30"><path d="M2 2v26h26V2H2zm24 4h-2V4h2v2zm-4 8H8V4h14v10zM6 10H4V8h2v2zm0 2v2H4v-2h2zm0 4v2H4v-2h2zm0 4v2H4v-2h2zm2-4h14v10H8V16zm16 4h2v2h-2v-2zm0-2v-2h2v2h-2zm0-4v-2h2v2h-2zm0-4V8h2v2h-2zM6 4v2H4V4h2zM4 24h2v2H4v-2zm20 2v-2h2v2h-2z" fill="#fff"/></svg>

<?xml version="1.0" encoding="iso-8859-1"?>
<!-- Generator: Adobe Illustrator 14.0.0, SVG Export Plug-In . SVG Version: 6.00 Build 43363)  -->
<!DOCTYPE svg PUBLIC "-//W3C//DTD SVG 1.1//EN" "http://www.w3.org/Graphics/SVG/1.1/DTD/svg11.dtd">
<svg version="1.1" id="Layer_1" xmlns="http://www.w3.org/2000/svg" xmlns:xlink="http://www.w3.org/1999/xlink" x="0px" y="0px"
	 width="30px" height="30px" viewBox="0 0 30 30" style="enable-background:new 0 0 30 30;" xml:space="preserve">
<path style="fill:#fff" d="M2,2v26h26V2H2z M26,6h-2V4h2V6z M22,14H8V4h14V14z M6,10H4V8h2V10z M6,12v2H4v-2H6z M6,16v2H4v-2H6z M6,20v2H4v-2H6z M8,16
	h14v10H8V16z M24,20h2v2h-2V20z M24,18v-2h2v2H24z M24,14v-2h2v2H24z M24,10V8h2v2H24z M6,4v2H4V4H6z M4,24h2v2H4V24z M24,26v-2h2v2
	H24z"/>
</svg>
